
;Exported by FreeCAD
;Post Processor: centroid_post
;CAM file: /home/steve/Ultimachine/foc-fixture/dial_260mm/base.FCStd
;Output Time: 2021-02-01 17:12:52.202860
G90 G80 G40 G49
;T1=TC__Default_Tool
;begin preamble
G53 G00 G17
G21
;begin operation
G54
;end operation: Fixture
;begin operation
;TC: Default Tool
M6 T1
M3 S10000
;end operation: TC: Default Tool
;begin operation
;Profile
;Compensated Tool Path. Diameter: 5.0
G0 Z8.2000
G0 X93.6915 Y93.6915
G0 Z6.2000
G1 X93.6915 Y93.6915 Z2.2000 F180.0
G2 X4.9204 Y-132.4084 Z2.2000 I-93.6915 J-93.6915 F300.0
G2 X-4.9204 Y132.4084 Z2.2000 I-4.9204 J132.4084 F300.0
G2 X93.6915 Y93.6915 Z2.2000 I4.9204 J-132.4084 F300.0
G1 X93.6915 Y93.6915 Z1.2000 F180.0
G2 X4.9204 Y-132.4084 Z1.2000 I-93.6915 J-93.6915 F300.0
G2 X-4.9204 Y132.4084 Z1.2000 I-4.9204 J132.4084 F300.0
G2 X93.6915 Y93.6915 Z1.2000 I4.9204 J-132.4084 F300.0
G1 X93.6915 Y93.6915 Z0.2000 F180.0
G2 X4.9204 Y-132.4084 Z0.2000 I-93.6915 J-93.6915 F300.0
G2 X-4.9204 Y132.4084 Z0.2000 I-4.9204 J132.4084 F300.0
G2 X93.6915 Y93.6915 Z0.2000 I4.9204 J-132.4084 F300.0
G1 X93.6915 Y93.6915 Z0.0000 F180.0
G2 X4.9204 Y-132.4084 Z0.0000 I-93.6915 J-93.6915 F300.0
G2 X-4.9204 Y132.4084 Z0.0000 I-4.9204 J132.4084 F300.0
G2 X93.6915 Y93.6915 Z0.0000 I4.9204 J-132.4084 F300.0
G0 Z8.2000
G0 Z8.2000
;end operation: Profile
;begin operation
;Profile001
;Compensated Tool Path. Diameter: 5.0
G0 Z8.2000
G0 X5.3016 Y5.3016
G0 Z6.2000
G1 X5.3016 Y5.3016 Z2.2000 F180.0
G2 X1.3019 Y-7.3837 Z2.2000 I-5.3016 J-5.3016 F300.0
G2 X-7.3837 Y-1.3019 Z2.2000 I-1.3019 J7.3837 F300.0
G2 X-1.3019 Y7.3837 Z2.2000 I7.3837 J1.3019 F300.0
G2 X5.3016 Y5.3016 Z2.2000 I1.3019 J-7.3837 F300.0
G1 X5.3016 Y5.3016 Z1.2000 F180.0
G2 X1.3019 Y-7.3837 Z1.2000 I-5.3016 J-5.3016 F300.0
G2 X-7.3837 Y-1.3019 Z1.2000 I-1.3019 J7.3837 F300.0
G2 X-1.3019 Y7.3837 Z1.2000 I7.3837 J1.3019 F300.0
G2 X5.3016 Y5.3016 Z1.2000 I1.3019 J-7.3837 F300.0
G1 X5.3016 Y5.3016 Z0.2000 F180.0
G2 X1.3019 Y-7.3837 Z0.2000 I-5.3016 J-5.3016 F300.0
G2 X-7.3837 Y-1.3019 Z0.2000 I-1.3019 J7.3837 F300.0
G2 X-1.3019 Y7.3837 Z0.2000 I7.3837 J1.3019 F300.0
G2 X5.3016 Y5.3016 Z0.2000 I1.3019 J-7.3837 F300.0
G1 X5.3016 Y5.3016 Z0.0000 F180.0
G2 X1.3019 Y-7.3837 Z0.0000 I-5.3016 J-5.3016 F300.0
G2 X-7.3837 Y-1.3019 Z0.0000 I-1.3019 J7.3837 F300.0
G2 X-1.3019 Y7.3837 Z0.0000 I7.3837 J1.3019 F300.0
G2 X5.3016 Y5.3016 Z0.0000 I1.3019 J-7.3837 F300.0
G0 Z8.2000
G0 Z8.2000
;end operation: Profile001
;begin postamble
M5
M25
G49 H0
G90 G80 G40 G49
M99
