(Exported by FreeCAD)
(Post Processor: linuxcnc_post)
(Output Time:2021-02-02 13:31:45.967103)
(begin preamble)
G17 G54 G40 G49 G80 G90
G21
(begin operation: Fixture)
(machine: not set, mm/min)
G54 
(finish operation: Fixture)
(begin operation: TC: Default Tool)
(machine: not set, mm/min)
(TC: Default Tool) 
M5
M6 T1 
G43 H1 
M3 S10000 
(finish operation: TC: Default Tool)
(begin operation: Helix)
(machine: not set, mm/min)
(Helix) 
(helix cut operation) 
G0 Z8.200 
G0 X13.438 Y13.000 
G0 Z6.200 
G1 Z3.200 F180.000 
G2 X12.562 Y13.000 Z2.400 I-0.438 J0.000 F300.000 
G2 X13.438 Y13.000 Z1.600 I0.438 J0.000 F300.000 
G2 X12.562 Y13.000 Z0.800 I-0.438 J0.000 F300.000 
G2 X13.438 Y13.000 Z0.000 I0.438 J0.000 F300.000 
G2 X12.562 Y13.000 Z0.000 I-0.438 J0.000 F300.000 
G2 X13.438 Y13.000 Z0.000 I0.438 J0.000 F300.000 
G0 Z6.200 
G0 X15.938 Y15.500 
G0 Z6.200 
G1 Z3.200 F180.000 
G2 X15.062 Y15.500 Z2.400 I-0.438 J0.000 F300.000 
G2 X15.938 Y15.500 Z1.600 I0.438 J0.000 F300.000 
G2 X15.062 Y15.500 Z0.800 I-0.438 J0.000 F300.000 
G2 X15.938 Y15.500 Z0.000 I0.438 J0.000 F300.000 
G2 X15.062 Y15.500 Z0.000 I-0.438 J0.000 F300.000 
G2 X15.938 Y15.500 Z0.000 I0.438 J0.000 F300.000 
G0 Z6.200 
G0 X24.608 Y23.570 
G0 Z6.200 
G1 Z3.200 F180.000 
G2 X22.532 Y23.570 Z2.400 I-1.038 J0.000 F300.000 
G2 X24.608 Y23.570 Z1.600 I1.038 J0.000 F300.000 
G2 X22.532 Y23.570 Z0.800 I-1.038 J0.000 F300.000 
G2 X24.608 Y23.570 Z0.000 I1.038 J0.000 F300.000 
G2 X22.532 Y23.570 Z0.000 I-1.038 J0.000 F300.000 
G2 X24.608 Y23.570 Z0.000 I1.038 J0.000 F300.000 
G0 Z6.200 
G0 X-12.562 Y13.000 
G0 Z6.200 
G1 Z3.200 F180.000 
G2 X-13.438 Y13.000 Z2.400 I-0.438 J0.000 F300.000 
G2 X-12.562 Y13.000 Z1.600 I0.438 J0.000 F300.000 
G2 X-13.438 Y13.000 Z0.800 I-0.438 J0.000 F300.000 
G2 X-12.562 Y13.000 Z0.000 I0.438 J0.000 F300.000 
G2 X-13.438 Y13.000 Z0.000 I-0.438 J0.000 F300.000 
G2 X-12.562 Y13.000 Z0.000 I0.438 J0.000 F300.000 
G0 Z6.200 
G0 X-15.062 Y15.500 
G0 Z6.200 
G1 Z3.200 F180.000 
G2 X-15.938 Y15.500 Z2.400 I-0.438 J0.000 F300.000 
G2 X-15.062 Y15.500 Z1.600 I0.438 J0.000 F300.000 
G2 X-15.938 Y15.500 Z0.800 I-0.438 J0.000 F300.000 
G2 X-15.062 Y15.500 Z0.000 I0.438 J0.000 F300.000 
G2 X-15.938 Y15.500 Z0.000 I-0.438 J0.000 F300.000 
G2 X-15.062 Y15.500 Z0.000 I0.438 J0.000 F300.000 
G0 Z6.200 
G0 X-22.532 Y23.570 
G0 Z6.200 
G1 Z3.200 F180.000 
G2 X-24.608 Y23.570 Z2.400 I-1.038 J0.000 F300.000 
G2 X-22.532 Y23.570 Z1.600 I1.038 J0.000 F300.000 
G2 X-24.608 Y23.570 Z0.800 I-1.038 J0.000 F300.000 
G2 X-22.532 Y23.570 Z0.000 I1.038 J0.000 F300.000 
G2 X-24.608 Y23.570 Z0.000 I-1.038 J0.000 F300.000 
G2 X-22.532 Y23.570 Z0.000 I1.038 J0.000 F300.000 
G0 Z6.200 
G0 X-12.562 Y-13.000 
G0 Z6.200 
G1 Z3.200 F180.000 
G2 X-13.438 Y-13.000 Z2.400 I-0.438 J0.000 F300.000 
G2 X-12.562 Y-13.000 Z1.600 I0.438 J0.000 F300.000 
G2 X-13.438 Y-13.000 Z0.800 I-0.438 J0.000 F300.000 
G2 X-12.562 Y-13.000 Z0.000 I0.438 J0.000 F300.000 
G2 X-13.438 Y-13.000 Z0.000 I-0.438 J0.000 F300.000 
G2 X-12.562 Y-13.000 Z0.000 I0.438 J0.000 F300.000 
G0 Z6.200 
G0 X-15.062 Y-15.500 
G0 Z6.200 
G1 Z3.200 F180.000 
G2 X-15.938 Y-15.500 Z2.400 I-0.438 J0.000 F300.000 
G2 X-15.062 Y-15.500 Z1.600 I0.438 J0.000 F300.000 
G2 X-15.938 Y-15.500 Z0.800 I-0.438 J0.000 F300.000 
G2 X-15.062 Y-15.500 Z0.000 I0.438 J0.000 F300.000 
G2 X-15.938 Y-15.500 Z0.000 I-0.438 J0.000 F300.000 
G2 X-15.062 Y-15.500 Z0.000 I0.438 J0.000 F300.000 
G0 Z6.200 
G0 X-22.532 Y-23.570 
G0 Z6.200 
G1 Z3.200 F180.000 
G2 X-24.608 Y-23.570 Z2.400 I-1.038 J0.000 F300.000 
G2 X-22.532 Y-23.570 Z1.600 I1.038 J0.000 F300.000 
G2 X-24.608 Y-23.570 Z0.800 I-1.038 J0.000 F300.000 
G2 X-22.532 Y-23.570 Z0.000 I1.038 J0.000 F300.000 
G2 X-24.608 Y-23.570 Z0.000 I-1.038 J0.000 F300.000 
G2 X-22.532 Y-23.570 Z0.000 I1.038 J0.000 F300.000 
G0 Z6.200 
G0 X13.438 Y-13.000 
G0 Z6.200 
G1 Z3.200 F180.000 
G2 X12.562 Y-13.000 Z2.400 I-0.438 J0.000 F300.000 
G2 X13.438 Y-13.000 Z1.600 I0.438 J0.000 F300.000 
G2 X12.562 Y-13.000 Z0.800 I-0.438 J0.000 F300.000 
G2 X13.438 Y-13.000 Z0.000 I0.438 J0.000 F300.000 
G2 X12.562 Y-13.000 Z0.000 I-0.438 J0.000 F300.000 
G2 X13.438 Y-13.000 Z0.000 I0.438 J0.000 F300.000 
G0 Z6.200 
G0 X15.938 Y-15.500 
G0 Z6.200 
G1 Z3.200 F180.000 
G2 X15.062 Y-15.500 Z2.400 I-0.438 J0.000 F300.000 
G2 X15.938 Y-15.500 Z1.600 I0.438 J0.000 F300.000 
G2 X15.062 Y-15.500 Z0.800 I-0.438 J0.000 F300.000 
G2 X15.938 Y-15.500 Z0.000 I0.438 J0.000 F300.000 
G2 X15.062 Y-15.500 Z0.000 I-0.438 J0.000 F300.000 
G2 X15.938 Y-15.500 Z0.000 I0.438 J0.000 F300.000 
G0 Z6.200 
G0 X24.608 Y-23.570 
G0 Z6.200 
G1 Z3.200 F180.000 
G2 X22.532 Y-23.570 Z2.400 I-1.038 J0.000 F300.000 
G2 X24.608 Y-23.570 Z1.600 I1.038 J0.000 F300.000 
G2 X22.532 Y-23.570 Z0.800 I-1.038 J0.000 F300.000 
G2 X24.608 Y-23.570 Z0.000 I1.038 J0.000 F300.000 
G2 X22.532 Y-23.570 Z0.000 I-1.038 J0.000 F300.000 
G2 X24.608 Y-23.570 Z0.000 I1.038 J0.000 F300.000 
G0 Z6.200 
G0 Z8.200 
(finish operation: Helix)
(begin operation: Profile001)
(machine: not set, mm/min)
(Profile001) 
(Compensated Tool Path. Diameter: 3.125) 
G0 Z8.200 
G0 X5.965 Y5.965 
G0 Z6.200 
G1 X5.965 Y5.965 Z2.200 F180.000 
G2 X1.465 Y-8.308 Z2.200 I-5.965 J-5.965 F300.000 
G2 X-1.465 Y8.308 Z2.200 I-1.465 J8.308 F300.000 
G2 X5.965 Y5.965 Z2.200 I1.465 J-8.308 F300.000 
G1 X5.965 Y5.965 Z1.200 F180.000 
G2 X1.465 Y-8.308 Z1.200 I-5.965 J-5.965 F300.000 
G2 X-1.465 Y8.308 Z1.200 I-1.465 J8.308 F300.000 
G2 X5.965 Y5.965 Z1.200 I1.465 J-8.308 F300.000 
G1 X5.965 Y5.965 Z0.200 F180.000 
G2 X1.465 Y-8.308 Z0.200 I-5.965 J-5.965 F300.000 
G2 X-1.465 Y8.308 Z0.200 I-1.465 J8.308 F300.000 
G2 X5.965 Y5.965 Z0.200 I1.465 J-8.308 F300.000 
G1 X5.965 Y5.965 Z0.000 F180.000 
G2 X1.465 Y-8.308 Z0.000 I-5.965 J-5.965 F300.000 
G2 X-1.465 Y8.308 Z0.000 I-1.465 J8.308 F300.000 
G2 X5.965 Y5.965 Z0.000 I1.465 J-8.308 F300.000 
G0 Z8.200 
G0 Z8.200 
(finish operation: Profile001)
(begin operation: Profile)
(machine: not set, mm/min)
(Profile) 
(Compensated Tool Path. Diameter: 3.125) 
G0 Z8.200 
G0 X93.029 Y93.029 
G0 Z6.200 
G1 X93.029 Y93.029 Z2.200 F180.000 
G2 X4.874 Y-131.472 Z2.200 I-93.029 J-93.029 F300.000 
G2 X-4.874 Y131.472 Z2.200 I-4.874 J131.472 F300.000 
G2 X93.029 Y93.029 Z2.200 I4.874 J-131.472 F300.000 
G1 X93.029 Y93.029 Z1.200 F180.000 
G2 X4.874 Y-131.472 Z1.200 I-93.029 J-93.029 F300.000 
G2 X-4.874 Y131.472 Z1.200 I-4.874 J131.472 F300.000 
G2 X93.029 Y93.029 Z1.200 I4.874 J-131.472 F300.000 
G1 X93.029 Y93.029 Z0.200 F180.000 
G2 X4.874 Y-131.472 Z0.200 I-93.029 J-93.029 F300.000 
G2 X-4.874 Y131.472 Z0.200 I-4.874 J131.472 F300.000 
G2 X93.029 Y93.029 Z0.200 I4.874 J-131.472 F300.000 
G1 X93.029 Y93.029 Z0.000 F180.000 
G2 X4.874 Y-131.472 Z0.000 I-93.029 J-93.029 F300.000 
G2 X-4.874 Y131.472 Z0.000 I-4.874 J131.472 F300.000 
G2 X93.029 Y93.029 Z0.000 I4.874 J-131.472 F300.000 
G0 Z8.200 
G0 Z8.200 
(finish operation: Profile)
(begin postamble)
M05
G17 G54 G90 G80 G40
M2
